app/img/icomoon/car.svg

<svg width="18" height="14" viewBox="0 0 18 14" fill="none" xmlns="http://www.w3.org/2000/svg">
<path d="M4.9375 0.75C4.1123 0.75 3.37744 1.28711 3.14062 2.07812L2.28125 4.94922L1.07031 4.53906L0.679688 5.71094L1.91016 6.12109L1.51953 7.44922C1.50488 7.50537 1.49756 7.56641 1.5 7.625V12C1.5 12.0195 1.5 12.0391 1.5 12.0586V12.625C1.5 12.9692 1.78076 13.25 2.125 13.25H4L4.21484 12.625H13.7852L14 13.25H15.875C16.2192 13.25 16.5 12.9692 16.5 12.625V12.0977C16.5024 12.0659 16.5024 12.0317 16.5 12V7.625C16.5024 7.56641 16.4951 7.50537 16.4805 7.44922L16.0898 6.12109L17.3203 5.71094L16.9297 4.53906L15.7188 4.94922L14.8594 2.07812C14.6226 1.28711 13.8877 0.75 13.0625 0.75H4.9375ZM4.9375 2H13.0625C13.3408 2 13.5874 2.18311 13.668 2.44922L14.4688 5.125H3.53125L4.33203 2.44922C4.4126 2.18066 4.65918 2 4.9375 2ZM3.16016 6.375H14.8398L15.25 7.74219V11.375H2.75V7.74219L3.16016 6.375ZM4.3125 7C3.79492 7 3.375 7.41992 3.375 7.9375C3.375 8.45508 3.79492 8.875 4.3125 8.875C4.83008 8.875 5.25 8.45508 5.25 7.9375C5.25 7.41992 4.83008 7 4.3125 7ZM13.6875 7C13.1699 7 12.75 7.41992 12.75 7.9375C12.75 8.45508 13.1699 8.875 13.6875 8.875C14.2051 8.875 14.625 8.45508 14.625 7.9375C14.625 7.41992 14.2051 7 13.6875 7ZM6.5 8.875L5.71875 10.75H7.06641L7.33984 10.125H10.6602L10.9336 10.75H12.2812L11.5 8.875H6.5Z" fill="#9595A2"/>
</svg>

<svg width="18" height="14" fill="none" xmlns="http://www.w3.org/2000/svg"><path d="M4.938.75c-.826 0-1.56.537-1.797 1.328L2.28 4.95l-1.21-.41-.39 1.171 1.23.41-.39 1.328a.608.608 0 00-.02.176v5c0 .344.28.625.625.625H4l.215-.625h9.57l.215.625h1.875c.344 0 .625-.28.625-.625v-.527a.664.664 0 000-.098V7.625a.61.61 0 00-.02-.176l-.39-1.328 1.23-.41-.39-1.172-1.211.41-.86-2.87A1.873 1.873 0 0013.063.75H4.937zm0 1.25h8.125c.278 0 .524.183.605.45l.8 2.675H3.532l.801-2.676A.63.63 0 014.938 2zM3.16 6.375h11.68l.41 1.367v3.633H2.75V7.742l.41-1.367zM4.312 7a.938.938 0 10.001 1.875.938.938 0 000-1.875zm9.375 0a.938.938 0 10.001 1.875.938.938 0 000-1.875zM6.5 8.875l-.781 1.875h1.347l.274-.625h3.32l.274.625h1.347L11.5 8.875h-5z" fill="#9595A2"/></svg>
